img/logos/Amprion.svg

<?xml version="1.0" encoding="UTF-8" standalone="no"?>
<svg
 xmlns:dc="http://purl.org/dc/elements/1.1/"
 xmlns:cc="http://creativecommons.org/ns#"
 xmlns:rdf="http://www.w3.org/1999/02/22-rdf-syntax-ns#"
 xmlns:svg="http://www.w3.org/2000/svg"
 xmlns="http://www.w3.org/2000/svg"
 height="100%"
 width="100%"
 id="svg63"
 version="1.1"
 viewBox="0 0 100.01 42.220001">
<metadata
 id="metadata67">
<rdf:RDF>
<cc:Work
 rdf:about="">
<dc:format>image/svg+xml</dc:format>
<dc:type
 rdf:resource="http://purl.org/dc/dcmitype/StillImage" />
<dc:title>Amprion_Logo_RGB</dc:title>
</cc:Work>
</rdf:RDF>
</metadata>
<defs
 id="defs31">
<style
 id="style2">.cls-1{fill:none;}.cls-2{fill:#672389;}.cls-3{fill:url(#linear-gradient);}.cls-4{fill:url(#linear-gradient-2);}.cls-5{fill:#8fc8e5;}.cls-6{fill:url(#linear-gradient-3);}</style>
<linearGradient
 gradientTransform="translate(2,61.15)"
 gradientUnits="userSpaceOnUse"
 y2="85.769997"
 x2="34.580002"
 y1="63.330002"
 x1="22.09"
 id="linear-gradient">
<stop
 id="stop4"
 stop-color="#4d6cb3"
 offset="0.17" />
<stop
 id="stop6"
 stop-color="#2f2483"
 offset="0.86" />
</linearGradient>
<linearGradient
 gradientTransform="translate(2,61.15)"
 gradientUnits="userSpaceOnUse"
 y2="65.309998"
 x2="13.04"
 y1="96.870003"
 x1="10.57"
 id="linear-gradient-2">
<stop
 id="stop9"
 stop-color="#58348b"
 offset="0.23" />
<stop
 id="stop11"
 stop-color="#9e88bf"
 offset="0.91" />
</linearGradient>
<linearGradient
 gradientTransform="translate(2,61.15)"
 gradientUnits="userSpaceOnUse"
 y2="88.209999"
 x2="17.4"
 y1="85.75"
 x1="3.4200001"
 id="linear-gradient-3">
<stop
 id="stop14"
 stop-color="#adcfef"
 offset="0.2" />
<stop
 id="stop16"
 stop-color="#a7caec"
 offset="0.28" />
<stop
 id="stop18"
 stop-color="#97bce3"
 offset="0.38" />
<stop
 id="stop20"
 stop-color="#7ca5d5"
 offset="0.49" />
<stop
 id="stop22"
 stop-color="#5684c1"
 offset="0.61" />
<stop
 id="stop24"
 stop-color="#265ba7"
 offset="0.74" />
<stop
 id="stop26"
 stop-color="#2459a6"
 offset="0.75" />
<stop
 id="stop28"
 stop-color="#0454a3"
 offset="0.85" />
</linearGradient>
</defs>
<title
 id="title33">Amprion_Logo_RGB</title>
<g
 transform="translate(-2,-61.15)"
 id="logo">
<path
 style="fill:#672389"
 id="path38"
 d="m 25.18,97.44 a 13.33,13.33 0 0 1 -0.06,-1.35 15,15 0 0 1 0.07,-1.56 c 0.31,-2.69 2.67,-4.33 5.4,-4.33 h 3.63 v 9.8 h -2.33 v -1.63 l -0.74,0.61 a 4.27,4.27 0 0 1 -2.9,1.16 2.84,2.84 0 0 1 -3.07,-2.7 m 6.71,-0.88 v -4.5 h -1.17 a 3,3 0 0 0 -3.22,2.35 11.19,11.19 0 0 0 -0.11,1.53 8.94,8.94 0 0 0 0.1,1.3 1.21,1.21 0 0 0 1.35,1 A 4.64,4.64 0 0 0 31.3,97 Z"
 class="cls-2" />
<path
 style="fill:#672389"
 id="path40"
 d="m 37.06,90.2 h 2.33 v 1.68 l 0.57,-0.52 a 4.3,4.3 0 0 1 3.1,-1.3 2.51,2.51 0 0 1 2.69,1.94 h 0.1 l 0.66,-0.6 a 4.37,4.37 0 0 1 3.08,-1.3 c 1.79,0 2.86,1 2.86,3.26 V 100 h -2.33 v -6.34 c 0,-1.26 -0.47,-1.69 -1.32,-1.69 a 4.2,4.2 0 0 0 -2.33,1.26 l -0.55,0.46 V 100 h -2.31 v -6.34 c 0,-1.26 -0.49,-1.69 -1.36,-1.69 a 4.21,4.21 0 0 0 -2.31,1.26 l -0.55,0.46 V 100 h -2.33 z"
 class="cls-2" />
<path
 style="fill:#672389"
 id="path42"
 d="m 55.4,90.2 h 2.33 v 1.63 l 0.74,-0.61 a 4.31,4.31 0 0 1 2.9,-1.16 2.79,2.79 0 0 1 3,2.31 9.7,9.7 0 0 1 0.12,1.77 11.61,11.61 0 0 1 -0.09,1.79 C 64,98.45 61.68,100 59,100 h -1.3 v 3.37 h -2.3 z m 2.33,3.46 v 4.48 h 1.17 a 2.9,2.9 0 0 0 3.18,-2.42 7.74,7.74 0 0 0 0.06,-1.4 7.49,7.49 0 0 0 -0.08,-1.42 1.2,1.2 0 0 0 -1.33,-0.9 4.5,4.5 0 0 0 -2.41,1.2 z"
 class="cls-2" />
<path
 style="fill:#672389"
 id="path44"
 d="m 67.06,90.2 h 2.33 V 92 a 3.66,3.66 0 0 1 3,-1.84 h 0.73 v 2.07 H 72.2 a 3.74,3.74 0 0 0 -2.79,1.47 v 6.3 h -2.35 z"
 class="cls-2" />
<path
 style="fill:#672389"
 id="path46"
 d="M 75.93,92.06 H 74.82 V 90.2 h 3.44 v 9.8 h -2.33 z m 0,-5.5 h 2.33 v 2 h -2.33 z"
 class="cls-2" />
<path
 style="fill:#672389"
 id="path48"
 d="m 80.83,95 c 0,-3.17 1.67,-5 4.83,-5 3.32,0 4.84,1.79 4.84,5 0,3.44 -1.58,5.12 -4.84,5.12 -3.26,0 -4.83,-1.66 -4.83,-5.12 m 7.34,0 c 0,-2 -0.62,-3 -2.51,-3 -1.89,0 -2.5,1 -2.5,3 0,2 0.62,3.21 2.5,3.21 1.88,0 2.51,-1.21 2.51,-3.21"
 class="cls-2" />
<path
 style="fill:#672389"
 id="path50"
 d="m 93.07,90.2 h 2.33 v 1.68 l 0.61,-0.52 a 4.53,4.53 0 0 1 3.12,-1.3 c 1.79,0 2.88,1 2.88,3.26 V 100 h -2.34 v -6.34 c 0,-1.26 -0.48,-1.69 -1.33,-1.69 A 4.35,4.35 0 0 0 96,93.23 l -0.59,0.46 V 100 h -2.34 z"
 class="cls-2" />
<path
 style="fill:url(#linear-gradient)"
 id="path52"
 d="m 26,61.15 a 91.52,91.52 0 0 0 -4.67,8.63 c 1.08,2.24 2,4.38 2.75,6.34 h 0.46 c 9.11,0 11,9.11 11,9.11 C 34.69,80.35 28.11,64.41 26,61.15 Z"
 class="cls-3" />
<path
 style="fill:#672389"
 id="path54"
 d="M 21.32,69.78 A 91.52,91.52 0 0 1 26,61.15 h -9.4 a 92,92 0 0 1 4.59,8.36 z"
 class="cls-2" />
<path
 style="fill:url(#linear-gradient-2)"
 id="path56"
 d="m 17.7,77.81 c 1.28,-3.06 2.51,-5.75 3.62,-8 L 21.19,69.54 A 92,92 0 0 0 16.6,61.18 C 8.5,73.71 2,96 2,96 2.17,95.69 10.22,81.56 17.7,77.81 Z"
 class="cls-4" />
<path
 style="fill:#8fc8e5"
 id="path58"
 d="M 24.53,76.11 A 15.23,15.23 0 0 0 17.8,77.77 H 17.7 A 161.45,161.45 0 0 0 11.39,96 C 26.78,72.76 35.58,85.22 35.58,85.22 c 0,0 -1.94,-9.11 -11.05,-9.11 z"
 class="cls-5" />
<path
 style="fill:url(#linear-gradient-3)"
 id="path60"
 d="m 2,96 h 9.38 A 161.45,161.45 0 0 1 17.7,77.81 C 10.22,81.56 2.17,95.69 2,96 Z"
 class="cls-6" />
</g>
</svg>

<svg xmlns="http://www.w3.org/2000/svg" xmlns:xlink="http://www.w3.org/1999/xlink" viewBox="0 0 104 200"><defs><style>.cls-1{fill:none;}.cls-2{fill:#672389;}.cls-3{fill:url(#linear-gradient);}.cls-4{fill:url(#linear-gradient-2);}.cls-5{fill:#8fc8e5;}.cls-6{fill:url(#linear-gradient-3);}</style><linearGradient id="linear-gradient" x1="22.09" y1="63.33" x2="34.58" y2="85.77" gradientUnits="userSpaceOnUse"><stop offset="0.17" stop-color="#4d6cb3"/><stop offset="0.86" stop-color="#2f2483"/></linearGradient><linearGradient id="linear-gradient-2" x1="10.57" y1="96.87" x2="13.04" y2="65.31" gradientUnits="userSpaceOnUse"><stop offset="0.23" stop-color="#58348b"/><stop offset="0.91" stop-color="#9e88bf"/></linearGradient><linearGradient id="linear-gradient-3" x1="3.42" y1="85.75" x2="17.4" y2="88.21" gradientUnits="userSpaceOnUse"><stop offset="0.2" stop-color="#adcfef"/><stop offset="0.28" stop-color="#a7caec"/><stop offset="0.38" stop-color="#97bce3"/><stop offset="0.49" stop-color="#7ca5d5"/><stop offset="0.61" stop-color="#5684c1"/><stop offset="0.74" stop-color="#265ba7"/><stop offset="0.75" stop-color="#2459a6"/><stop offset="0.85" stop-color="#0454a3"/></linearGradient></defs><title>Amprion_Logo_RGB</title><g id="boundingbox"><rect class="cls-1" width="104" height="200"/></g><g id="logo"><path class="cls-2" d="M25.18,97.44a13.33,13.33,0,0,1-.06-1.35,15,15,0,0,1,.07-1.56c.31-2.69,2.67-4.33,5.4-4.33h3.63V100H31.89V98.37l-.74.61a4.27,4.27,0,0,1-2.9,1.16,2.84,2.84,0,0,1-3.07-2.7m6.71-.88v-4.5H30.72a3,3,0,0,0-3.22,2.35,11.19,11.19,0,0,0-.11,1.53,8.94,8.94,0,0,0,.1,1.3,1.21,1.21,0,0,0,1.35,1A4.64,4.64,0,0,0,31.3,97Z"/><path class="cls-2" d="M37.06,90.2h2.33v1.68l.57-.52a4.3,4.3,0,0,1,3.1-1.3A2.51,2.51,0,0,1,45.75,92h.1l.66-.6a4.37,4.37,0,0,1,3.08-1.3c1.79,0,2.86,1,2.86,3.26V100H50.12V93.66c0-1.26-.47-1.69-1.32-1.69a4.2,4.2,0,0,0-2.33,1.26l-.55.46V100H43.61V93.66c0-1.26-.49-1.69-1.36-1.69a4.21,4.21,0,0,0-2.31,1.26l-.55.46V100H37.06Z"/><path class="cls-2" d="M55.4,90.2h2.33v1.63l.74-.61a4.31,4.31,0,0,1,2.9-1.16,2.79,2.79,0,0,1,3,2.31,9.7,9.7,0,0,1,.12,1.77,11.61,11.61,0,0,1-.09,1.79C64,98.45,61.68,100,59,100h-1.3v3.37H55.4Zm2.33,3.46v4.48H58.9a2.9,2.9,0,0,0,3.18-2.42,7.74,7.74,0,0,0,.06-1.4,7.49,7.49,0,0,0-.08-1.42A1.2,1.2,0,0,0,60.73,92a4.5,4.5,0,0,0-2.41,1.2Z"/><path class="cls-2" d="M67.06,90.2h2.33V92a3.66,3.66,0,0,1,3-1.84h.73v2.07h-.92a3.74,3.74,0,0,0-2.79,1.47V100H67.06Z"/><path class="cls-2" d="M75.93,92.06H74.82V90.2h3.44V100H75.93Zm0-5.5h2.33v2H75.93Z"/><path class="cls-2" d="M80.83,95c0-3.17,1.67-5,4.83-5,3.32,0,4.84,1.79,4.84,5,0,3.44-1.58,5.12-4.84,5.12S80.83,98.46,80.83,95m7.34,0c0-2-.62-3-2.51-3s-2.5,1-2.5,3,.62,3.21,2.5,3.21S88.17,97,88.17,95"/><path class="cls-2" d="M93.07,90.2H95.4v1.68l.61-.52a4.53,4.53,0,0,1,3.12-1.3c1.79,0,2.88,1,2.88,3.26V100H99.67V93.66c0-1.26-.48-1.69-1.33-1.69A4.35,4.35,0,0,0,96,93.23l-.59.46V100H93.07Z"/><path class="cls-3" d="M26,61.15a91.52,91.52,0,0,0-4.67,8.63c1.08,2.24,2,4.38,2.75,6.34h.46c9.11,0,11,9.11,11,9.11C34.69,80.35,28.11,64.41,26,61.15Z"/><path class="cls-2" d="M21.32,69.78A91.52,91.52,0,0,1,26,61.15H16.6a92,92,0,0,1,4.59,8.36Z"/><path class="cls-4" d="M17.7,77.81c1.28-3.06,2.51-5.75,3.62-8l-.13-.27a92,92,0,0,0-4.59-8.36C8.5,73.71,2,96,2,96,2.17,95.69,10.22,81.56,17.7,77.81Z"/><path class="cls-5" d="M24.53,76.11a15.23,15.23,0,0,0-6.73,1.66l-.1,0A161.45,161.45,0,0,0,11.39,96C26.78,72.76,35.58,85.22,35.58,85.22S33.64,76.11,24.53,76.11Z"/><path class="cls-6" d="M2,96h9.38A161.45,161.45,0,0,1,17.7,77.81C10.22,81.56,2.17,95.69,2,96Z"/></g></svg>
